www/assets/icons/screenshot.svg

<svg xmlns="http://www.w3.org/2000/svg" width="24" height="24" viewBox="0 0 24 24" fill='currentColor'><path d="M17 1.01 7 1c-1.1 0-2 .9-2 2v18c0 1.1.9 2 2 2h10c1.1 0 2-.9 2-2V3c0-1.1-.9-1.99-2-1.99M17 18H7V6h10zM9.5 8.5H12V7H8v4h1.5zM12 17h4v-4h-1.5v2.5H12z"/></svg>

<svg width="24" height="24" viewBox="0 0 24 24" xmlns="http://www.w3.org/2000/svg" fill='currentColor'><path d="M17 1.01L7 1C5.9 1 5 1.9 5 3V21C5 22.1 5.9 23 7 23H17C18.1 23 19 22.1 19 21V3C19 1.9 18.1 1.01 17 1.01ZM17 18H7V6H17V18ZM9.5 8.5H12V7H8V11H9.5V8.5ZM12 17H16V13H14.5V15.5H12V17Z"/></svg>
